public/images/logo.svg

<svg width="174" height="15" viewBox="0 0 174 15" fill="none" xmlns="http://www.w3.org/2000/svg">
<g clip-path="url(#clip0_311_327)">
<path d="M1.39124 11.1494C2.21803 12.1921 3.38667 13.0213 4.8415 13.0213C6.15324 13.0213 7.30598 12.1429 7.30598 10.8374C7.30598 8.60427 4.31681 8.35796 2.44063 7.08539C1.43099 6.39573 0.643944 5.39409 0.643944 3.87521C0.643944 1.74877 2.46448 0 4.921 0C6.71769 0 7.96582 0.812808 8.71312 1.46141L7.52063 2.9803C6.74949 2.31527 5.88294 1.97865 5.0005 1.97865C3.83186 1.97865 2.66322 2.66831 2.66322 3.94089C2.66322 5.79639 5.6683 6.19048 7.48883 7.43842C8.43487 8.08703 9.32526 9.10509 9.32526 10.7718C9.32526 13.3333 7.40933 15 4.94485 15C3.00507 15 1.25609 14.1215 0 12.5616L1.39124 11.1412V11.1494Z" fill="white"/>
<path d="M20.805 14.7947H18.2451L13.5467 10V14.7947H11.6307V0H13.5467V8.75205L17.4978 5H20.2008L15.4626 9.41708L20.805 14.7947Z" fill="white"/>
<path d="M28.8105 13.8998C28.0394 14.6059 27.0138 15 25.8849 15C25.0343 15 24.1519 14.7537 23.5079 14.3514C22.0769 13.4729 21.0832 11.8473 21.0832 9.89327C21.0832 7.93925 22.0928 6.289 23.5238 5.41051C24.1678 5.01642 24.9548 4.78654 25.8452 4.78654C26.9105 4.78654 27.944 5.12315 28.8105 5.8867V4.99179H30.6628V14.7865H28.8105V13.8916V13.8998ZM28.7469 8.0624C28.1586 7.27422 27.1967 6.66667 26.0439 6.66667C24.2075 6.66667 22.9991 8.18555 22.9991 9.89327C22.9991 11.601 24.3109 13.1199 26.1473 13.1199C27.1172 13.1199 28.103 12.619 28.7469 11.7241V8.05419V8.0624Z" fill="white"/>
<path d="M35.5918 14.7947H33.7395V0H35.6554V5.85386C36.5061 5.12315 37.5316 4.79475 38.5572 4.79475C39.4475 4.79475 40.2346 5.02463 40.8785 5.41872C42.3095 6.29721 43.3192 7.93924 43.3192 9.90148C43.3192 11.8637 42.3334 13.4811 40.8944 14.3596C40.2505 14.7537 39.3601 15.0082 38.5174 15.0082C37.3885 15.0082 36.363 14.6141 35.5918 13.908V14.803V14.7947ZM35.6554 11.7323C36.2994 12.6273 37.2931 13.1281 38.2551 13.1281C40.0915 13.1281 41.4032 11.6502 41.4032 9.90148C41.4032 8.15271 40.1948 6.67488 38.3584 6.67488C37.2057 6.67488 36.2358 7.28243 35.6554 8.07061V11.7406V11.7323Z" fill="white"/>
<path d="M47.636 5.85386C48.1607 5.39409 49.1067 4.79475 50.4184 4.79475C51.8097 4.79475 53.0578 5.45977 53.8687 6.52709C54.4729 7.31527 54.7988 8.31691 54.7988 10.0082V14.803H52.8829V9.90969C52.8829 8.66174 52.6603 8.07882 52.3185 7.63547C51.8733 7.05255 51.1498 6.67488 50.3628 6.67488C49.1146 6.67488 48.2084 7.36453 47.636 8.07061V14.803H45.72V0H47.636V5.85386Z" fill="white"/>
<path d="M61.9061 4.79475C64.7124 4.79475 66.8112 6.97865 66.8112 9.90148C66.8112 12.8243 64.7124 15.0082 61.9061 15.0082C59.0998 15.0082 57.001 12.8243 57.001 9.90148C57.001 6.97865 59.0998 4.79475 61.9061 4.79475ZM61.9061 13.1281C63.663 13.1281 64.8953 11.6913 64.8953 9.90148C64.8953 8.11166 63.663 6.67488 61.9061 6.67488C60.1492 6.67488 58.9169 8.11166 58.9169 9.90148C58.9169 11.6913 60.1492 13.1281 61.9061 13.1281Z" fill="white"/>
<path d="M69.2359 0H71.1518V14.7947H69.2359V0Z" fill="white"/>
<path d="M76.0569 5V5.93596C76.4385 5.50082 77.5515 4.78654 78.8394 4.78654C80.2306 4.78654 81.3993 5.43514 82.1863 6.41215C83.0529 5.51724 84.0784 4.78654 85.7956 4.78654C87.1471 4.78654 88.3793 5.41051 89.1664 6.42857C89.7546 7.1757 90.0329 8.13629 90.0329 9.78654V14.7865H88.117V9.47455C88.117 8.47291 87.9182 7.93104 87.5764 7.51232C87.155 6.99508 86.5111 6.65846 85.8035 6.65846C84.4282 6.65846 83.5458 7.38916 82.9177 8.05419C83.0211 8.53038 83.0767 9.09688 83.0767 9.78654V14.7865H81.1608V9.47455C81.1608 8.47291 80.962 7.93104 80.6202 7.51232C80.1988 6.99508 79.5072 6.65846 78.7837 6.65846C77.6151 6.65846 76.6691 7.38916 76.1205 8.05419V14.7865H74.2046V5H76.0569Z" fill="white"/>
<path d="M94.1589 10.312C94.2623 11.954 95.574 13.2677 97.2276 13.2677C98.6427 13.2677 99.4059 12.5616 99.9544 11.9376L101.203 13.1691C100.495 14.1051 99.1435 15 97.2117 15C94.4451 15 92.3066 12.8325 92.3066 9.89327C92.3066 6.95403 94.2464 4.78654 96.9255 4.78654C99.6046 4.78654 101.481 6.99508 101.481 9.89327C101.481 9.97537 101.481 10.1232 101.465 10.312H94.1589ZM94.3179 8.64532H99.4854C99.1992 7.39737 98.11 6.51889 96.9811 6.51889C95.7489 6.51889 94.6439 7.37274 94.3179 8.64532Z" fill="white"/>
<path d="M105.75 5.93596C106.251 5.43514 107.221 4.78654 108.596 4.78654C109.971 4.78654 111.235 5.45156 112.046 6.51889C112.65 7.30706 112.976 8.30871 112.976 10V14.7947H111.06V9.90148C111.06 8.65353 110.838 8.07061 110.496 7.62726C110.051 7.04434 109.327 6.66667 108.54 6.66667C107.292 6.66667 106.378 7.35632 105.814 8.0624V14.7947H103.898V5H105.75V5.93596Z" fill="white"/>
<path d="M121.745 0.205254H123.764V14.7947H121.745V0.205254Z" fill="white"/>
<path d="M128.765 5.93596C129.266 5.43514 130.236 4.78654 131.611 4.78654C132.986 4.78654 134.25 5.45156 135.061 6.51889C135.665 7.30706 135.991 8.30871 135.991 10V14.7947H134.075V9.90148C134.075 8.65353 133.853 8.07061 133.511 7.62726C133.066 7.04434 132.342 6.66667 131.555 6.66667C130.307 6.66667 129.393 7.35632 128.829 8.0624V14.7947H126.913V5H128.765V5.93596Z" fill="white"/>
<path d="M137.096 5H139.076L141.882 11.6667L144.689 5H146.668L142.55 14.7947H141.222L137.104 5H137.096Z" fill="white"/>
<path d="M149.196 10.312C149.3 11.954 150.611 13.2677 152.265 13.2677C153.68 13.2677 154.443 12.5616 154.992 11.9376L156.24 13.1691C155.532 14.1051 154.181 15 152.249 15C149.482 15 147.344 12.8325 147.344 9.89327C147.344 6.95403 149.284 4.78654 151.963 4.78654C154.642 4.78654 156.518 6.99508 156.518 9.89327C156.518 9.97537 156.518 10.1232 156.502 10.312H149.196ZM149.355 8.64532H154.523C154.236 7.39737 153.147 6.51889 152.018 6.51889C150.786 6.51889 149.681 7.37274 149.355 8.64532Z" fill="white"/>
<path d="M159.038 12.1921C159.929 12.8982 160.891 13.2759 161.845 13.2759C162.671 13.2759 163.498 12.8161 163.498 12.0443C163.498 10.9195 161.924 10.8539 160.533 10.3777C159.38 9.98358 158.355 9.22824 158.355 7.85714C158.355 5.75534 160.167 4.79475 161.868 4.79475C163.26 4.79475 164.269 5.25452 165.017 5.87849L164.031 7.29885C163.443 6.83908 162.759 6.52709 161.996 6.52709C161.065 6.52709 160.278 6.98686 160.278 7.75862C160.278 8.42365 161.026 8.65353 161.972 8.90805C163.466 9.30214 165.422 9.99179 165.422 12.0115C165.422 13.867 163.745 15.0082 161.892 15.0082C160.382 15.0082 159.11 14.532 158.06 13.6535L159.046 12.1921H159.038Z" fill="white"/>
<path d="M174 14.7947C173.634 14.9179 173.054 15 172.505 15C171.313 15 170.43 14.5649 169.826 13.8506C169.262 13.202 169.055 12.3071 169.055 11.2479V6.76519H166.638V4.99179H169.055V2.29064H170.971V5H174V6.7734H170.971V11.3547C170.971 11.8719 171.011 12.3153 171.257 12.6026C171.52 12.9392 172.068 13.1199 172.569 13.1199C172.855 13.1199 173.332 13.0788 173.618 12.9967L174 14.7865V14.7947Z" fill="white"/>
</g>
<defs>
<clipPath id="clip0_311_327">
<rect width="174" height="15" fill="white"/>
</clipPath>
</defs>
</svg>

<?xml version="1.0" encoding="utf-8"?>
<!-- Generator: Adobe Illustrator 25.4.0, SVG Export Plug-In . SVG Version: 6.00 Build 0)  -->
<svg version="1.1" id="Layer_1" xmlns="http://www.w3.org/2000/svg" xmlns:xlink="http://www.w3.org/1999/xlink" x="0px" y="0px"
	 viewBox="0 0 174 15" style="enable-background:new 0 0 174 15;" xml:space="preserve">
<style type="text/css">
	.st0{clip-path:url(#SVGID_00000085965881658686866660000007742417154583464887_);}
</style>
<g>
	<defs>
		<rect id="SVGID_1_" y="0" width="174" height="15"/>
	</defs>
	<clipPath id="SVGID_00000112613620287261599200000016044906115987059131_">
		<use xlink:href="#SVGID_1_"  style="overflow:visible;"/>
	</clipPath>
	<g style="clip-path:url(#SVGID_00000112613620287261599200000016044906115987059131_);">
		<path d="M1.4,11.1c0.8,1,2,1.9,3.5,1.9c1.3,0,2.5-0.9,2.5-2.2c0-2.2-3-2.5-4.9-3.8c-1-0.7-1.8-1.7-1.8-3.2C0.6,1.7,2.5,0,4.9,0
			c1.8,0,3,0.8,3.8,1.5L7.5,3C6.7,2.3,5.9,2,5,2c-1.2,0-2.3,0.7-2.3,2c0,1.9,3,2.2,4.8,3.5c0.9,0.6,1.8,1.7,1.8,3.3
			c0,2.6-1.9,4.2-4.4,4.2C3,15,1.3,14.1,0,12.6L1.4,11.1L1.4,11.1z"/>
		<path d="M20.8,14.8h-2.6L13.5,10v4.8h-1.9V0h1.9v8.8l4-3.8h2.7l-4.7,4.4L20.8,14.8z"/>
		<path d="M28.8,13.9C28,14.6,27,15,25.9,15c-0.9,0-1.7-0.2-2.4-0.6c-1.4-0.9-2.4-2.5-2.4-4.5c0-2,1-3.6,2.4-4.5
			C24.2,5,25,4.8,25.8,4.8c1.1,0,2.1,0.3,3,1.1V5h1.9v9.8h-1.9V13.9L28.8,13.9z M28.7,8.1c-0.6-0.8-1.6-1.4-2.7-1.4
			c-1.8,0-3,1.5-3,3.2c0,1.7,1.3,3.2,3.1,3.2c1,0,2-0.5,2.6-1.4V8.1L28.7,8.1z"/>
		<path d="M35.6,14.8h-1.9V0h1.9v5.9c0.9-0.7,1.9-1.1,2.9-1.1c0.9,0,1.7,0.2,2.3,0.6c1.4,0.9,2.4,2.5,2.4,4.5c0,2-1,3.6-2.4,4.5
			c-0.6,0.4-1.5,0.6-2.4,0.6c-1.1,0-2.2-0.4-2.9-1.1V14.8L35.6,14.8z M35.7,11.7c0.6,0.9,1.6,1.4,2.6,1.4c1.8,0,3.1-1.5,3.1-3.2
			c0-1.7-1.2-3.2-3-3.2c-1.2,0-2.1,0.6-2.7,1.4V11.7L35.7,11.7z"/>
		<path d="M47.6,5.9c0.5-0.5,1.5-1.1,2.8-1.1c1.4,0,2.6,0.7,3.5,1.7c0.6,0.8,0.9,1.8,0.9,3.5v4.8h-1.9V9.9c0-1.2-0.2-1.8-0.6-2.3
			c-0.4-0.6-1.2-1-2-1c-1.2,0-2.2,0.7-2.7,1.4v6.7h-1.9V0h1.9V5.9z"/>
		<path d="M61.9,4.8c2.8,0,4.9,2.2,4.9,5.1c0,2.9-2.1,5.1-4.9,5.1S57,12.8,57,9.9C57,7,59.1,4.8,61.9,4.8z M61.9,13.1
			c1.8,0,3-1.4,3-3.2s-1.2-3.2-3-3.2c-1.8,0-3,1.4-3,3.2S60.1,13.1,61.9,13.1z"/>
		<path d="M69.2,0h1.9v14.8h-1.9V0z"/>
		<path d="M76.1,5v0.9c0.4-0.4,1.5-1.1,2.8-1.1c1.4,0,2.6,0.6,3.3,1.6c0.9-0.9,1.9-1.6,3.6-1.6c1.4,0,2.6,0.6,3.4,1.6
			C89.8,7.2,90,8.1,90,9.8v5h-1.9V9.5c0-1-0.2-1.5-0.5-2c-0.4-0.5-1.1-0.9-1.8-0.9c-1.4,0-2.3,0.7-2.9,1.4c0.1,0.5,0.2,1,0.2,1.7v5
			h-1.9V9.5c0-1-0.2-1.5-0.5-2c-0.4-0.5-1.1-0.9-1.8-0.9c-1.2,0-2.1,0.7-2.7,1.4v6.7h-1.9V5H76.1z"/>
		<path d="M94.2,10.3c0.1,1.6,1.4,3,3.1,3c1.4,0,2.2-0.7,2.7-1.3l1.2,1.2c-0.7,0.9-2.1,1.8-4,1.8c-2.8,0-4.9-2.2-4.9-5.1
			c0-2.9,1.9-5.1,4.6-5.1s4.6,2.2,4.6,5.1c0,0.1,0,0.2,0,0.4H94.2z M94.3,8.6h5.2c-0.3-1.2-1.4-2.1-2.5-2.1
			C95.7,6.5,94.6,7.4,94.3,8.6z"/>
		<path d="M105.8,5.9c0.5-0.5,1.5-1.1,2.8-1.1s2.6,0.7,3.4,1.7c0.6,0.8,0.9,1.8,0.9,3.5v4.8h-1.9V9.9c0-1.2-0.2-1.8-0.6-2.3
			c-0.4-0.6-1.2-1-2-1c-1.2,0-2.2,0.7-2.7,1.4v6.7h-1.9V5h1.9V5.9z"/>
		<path d="M121.7,0.2h2v14.6h-2V0.2z"/>
		<path d="M128.8,5.9c0.5-0.5,1.5-1.1,2.8-1.1s2.6,0.7,3.5,1.7c0.6,0.8,0.9,1.8,0.9,3.5v4.8h-1.9V9.9c0-1.2-0.2-1.8-0.6-2.3
			c-0.4-0.6-1.2-1-2-1c-1.2,0-2.2,0.7-2.7,1.4v6.7h-1.9V5h1.9V5.9z"/>
		<path d="M137.1,5h2l2.8,6.7l2.8-6.7h2l-4.1,9.8h-1.3L137.1,5L137.1,5z"/>
		<path d="M149.2,10.3c0.1,1.6,1.4,3,3.1,3c1.4,0,2.2-0.7,2.7-1.3l1.2,1.2c-0.7,0.9-2.1,1.8-4,1.8c-2.8,0-4.9-2.2-4.9-5.1
			c0-2.9,1.9-5.1,4.6-5.1s4.6,2.2,4.6,5.1c0,0.1,0,0.2,0,0.4H149.2z M149.4,8.6h5.2c-0.3-1.2-1.4-2.1-2.5-2.1
			C150.8,6.5,149.7,7.4,149.4,8.6z"/>
		<path d="M159,12.2c0.9,0.7,1.9,1.1,2.8,1.1c0.8,0,1.7-0.5,1.7-1.2c0-1.1-1.6-1.2-3-1.7c-1.2-0.4-2.2-1.1-2.2-2.5
			c0-2.1,1.8-3.1,3.5-3.1c1.4,0,2.4,0.5,3.1,1.1l-1,1.4c-0.6-0.5-1.3-0.8-2-0.8c-0.9,0-1.7,0.5-1.7,1.2c0,0.7,0.7,0.9,1.7,1.1
			c1.5,0.4,3.4,1.1,3.4,3.1c0,1.9-1.7,3-3.5,3c-1.5,0-2.8-0.5-3.8-1.4L159,12.2L159,12.2z"/>
		<path d="M174,14.8c-0.4,0.1-0.9,0.2-1.5,0.2c-1.2,0-2.1-0.4-2.7-1.1c-0.6-0.6-0.8-1.5-0.8-2.6V6.8h-2.4V5h2.4V2.3h1.9V5h3v1.8h-3
			v4.6c0,0.5,0,1,0.3,1.2c0.3,0.3,0.8,0.5,1.3,0.5c0.3,0,0.8,0,1-0.1L174,14.8L174,14.8z"/>
	</g>
</g>
</svg>
